public/icons/github_icon.svg

<svg width="30" height="30" viewBox="0 0 30 30" fill="none" xmlns="http://www.w3.org/2000/svg">
<circle cx="15" cy="15" r="15" fill="#FCFCFC"/>
<path d="M12.9604 22.6031C13.8757 22.8616 14.8417 23 15.8402 23C16.6139 23 17.368 22.9169 18.0941 22.7593C18.048 22.6741 18.0278 22.5762 18.0278 22.4825C18.0278 22.368 18.0292 22.1683 18.031 21.9018L18.031 21.9011L18.031 21.9003C18.0347 21.364 18.0403 20.5573 18.0403 19.6284C18.0403 18.6579 17.7087 18.0193 17.3459 17.7001C19.6167 17.4383 22 16.5636 22 12.5665C22 11.43 21.6059 10.5042 20.9553 9.77628C21.0617 9.51449 21.412 8.45458 20.8553 7.02434C20.8553 7.02434 19.9983 6.74339 18.0528 8.09063C17.2396 7.86077 16.3638 7.74584 15.5006 7.73946C14.6311 7.74584 13.7615 7.86077 12.9483 8.09063C11.0029 6.74339 10.1459 7.02434 10.1459 7.02434C9.59541 8.45458 9.94571 9.50811 10.0521 9.77628C9.39523 10.5042 9.00114 11.43 9.00114 12.5665C9.00114 16.5508 11.3782 17.4447 13.6364 17.7001C13.3487 17.9619 13.086 18.4216 12.9921 19.092C12.4104 19.3602 10.9341 19.8199 10.027 18.2301C10.027 18.2301 9.48281 17.234 8.46317 17.1574C8.46317 17.1574 7.46855 17.1446 8.39436 17.7895C8.39436 17.7895 9.06369 18.1151 9.5266 19.3155C9.5266 19.3155 10.1271 21.3332 12.9608 20.7074C12.9631 21.0175 12.9653 21.2999 12.9673 21.5462L12.9673 21.5494C12.9708 21.9912 12.9734 22.3164 12.9734 22.4761C12.9734 22.5181 12.9692 22.5609 12.9604 22.6031Z" fill="#4E4B66"/>
</svg>

<svg width="30" height="30" fill="none" xmlns="http://www.w3.org/2000/svg"><circle cx="15" cy="15" r="15" fill="#FCFCFC"/><path d="M12.96 22.603a10.654 10.654 0 0 0 5.134.157.586.586 0 0 1-.066-.277l.003-.581V21.9c.004-.536.01-1.343.01-2.272 0-.97-.332-1.609-.695-1.928 2.27-.262 4.654-1.136 4.654-5.133 0-1.137-.394-2.063-1.045-2.79.107-.263.457-1.322-.1-2.753 0 0-.857-.28-2.802 1.067a9.737 9.737 0 0 0-2.552-.352c-.87.007-1.74.122-2.553.352-1.945-1.348-2.802-1.067-2.802-1.067-.55 1.43-.2 2.484-.094 2.752-.657.728-1.05 1.654-1.05 2.79 0 3.985 2.376 4.879 4.634 5.134-.287.262-.55.722-.644 1.392-.582.268-2.058.728-2.965-.862 0 0-.544-.996-1.564-1.073 0 0-.994-.012-.069.633 0 0 .67.325 1.133 1.526 0 0 .6 2.017 3.434 1.391l.006.84v.002c.004.442.006.767.006.927a.624.624 0 0 1-.013.127Z" fill="#4E4B66"/></svg>
